;FLAVOR:Marlin
;TIME:8713
;Filament used: 6.29377m
;Layer height: 0.2
;MINX:33.939
;MINY:54.033
;MINZ:0.3
;MAXX:183.773
;MAXY:151.036
;MAXZ:42.7
;Generated with Cura_SteamEngine 5.2.1
M140 S60
M105
M190 S60
M104 S200
M105
M109 S200
M82 ;absolute extrusion mode
G28 ;Home
G1 Z15.0 F2000 ;Move the platform
G92 E0
G92 E0
G1 F1500 E-6.5
;LAYER_COUNT:213
;LAYER:0
M107
M204 S1000
G0 F7500 X37.564 Y57.314 Z0.3
;TYPE:SKIRT
G1 F1500 E0
G1 X38.225 Y56.882 E0.0394
G1 X39.228 Y56.389 E0.09515
G1 X39.64 Y56.222 E0.11733
G1 X40.386 Y55.963 E0.15673
G1 X41.482 Y55.727 E0.21266
G1 X47.394 Y54.894 E0.51053
G1 X47.777 Y54.85 E0.52976
G1 X53.726 Y54.31 E0.82778
G1 X54.111 Y54.285 E0.84703
G1 X60.077 Y54.04 E1.14492
G1 X60.46 Y54.033 E1.16403
G1 X66.431 Y54.081 E1.46194
G1 X66.817 Y54.094 E1.48121
G1 X72.778 Y54.438 E1.7791
G1 X73.161 Y54.469 E1.79827
G1 X79.1 Y55.106 E2.09626
G1 X79.481 Y55.157 E2.11544
G1 X85.38 Y56.086 E2.41337
G1 X85.76 Y56.155 E2.43264
G1 X91.607 Y57.375 E2.73063
G1 X91.982 Y57.463 E2.74985
G1 X97.762 Y58.97 E3.04785
G1 X98.131 Y59.076 E3.06701
G1 X103.827 Y60.865 E3.36487
G1 X104.19 Y60.989 E3.38401
G1 X109.794 Y63.057 E3.68202
G1 X110.155 Y63.201 E3.70141
G1 X115.647 Y65.544 E3.9993
G1 X115.996 Y65.703 E4.01843
G1 X121.366 Y68.313 E4.31631
G1 X121.708 Y68.489 E4.3355
G1 X126.945 Y71.362 E4.63351
G1 X127.278 Y71.556 E4.65274
G1 X132.366 Y74.684 E4.95071
G1 X132.687 Y74.893 E4.96982
G1 X137.614 Y78.266 E5.26771
G1 X137.928 Y78.492 E5.28702
G1 X142.684 Y82.107 E5.58506
G1 X142.985 Y82.348 E5.60429
G1 X147.554 Y86.191 E5.90215
G1 X147.84 Y86.444 E5.9212
G1 X152.216 Y90.507 E6.21912
G1 X152.495 Y90.779 E6.23856
G1 X156.664 Y95.056 E6.53654
G1 X156.924 Y95.336 E6.5556
G1 X160.877 Y99.811 E6.85349
G1 X161.124 Y100.105 E6.87265
G1 X164.853 Y104.771 E7.17064
G1 X165.087 Y105.079 E7.18994
G1 X168.579 Y109.922 E7.48782
G1 X168.796 Y110.24 E7.50702
G1 X172.046 Y115.251 E7.805
G1 X172.248 Y115.579 E7.82422
G1 X175.246 Y120.743 E8.12212
G1 X175.43 Y121.08 E8.14128
G1 X178.171 Y126.387 E8.43927
G1 X178.34 Y126.734 E8.45853
G1 X180.814 Y132.168 E8.75641
G1 X180.964 Y132.522 E8.77559
G1 X183.17 Y138.078 E9.07383
G1 X183.424 Y138.825 E9.11319
G1 X183.625 Y139.736 E9.15974
G1 X183.685 Y140.115 E9.17888
G1 X183.769 Y140.901 E9.21832
G1 X183.773 Y141.69 E9.25768
G1 X183.645 Y142.785 E9.31268
G1 X183.589 Y143.081 E9.32771
G1 X183.403 Y143.848 E9.36709
G1 X183.141 Y144.593 E9.40649
G1 X182.738 Y145.429 E9.45279
G1 X182.573 Y145.725 E9.46969
G1 X182.154 Y146.394 E9.50908
G1 X181.67 Y147.018 E9.54848
G1 X181.125 Y147.589 E9.58786
G1 X180.672 Y147.986 E9.61791
G1 X180.334 Y148.26 E9.63961
G1 X179.696 Y148.726 E9.67903
G1 X179.014 Y149.124 E9.71843
G1 X178.064 Y149.54 E9.77017
G1 X175.825 Y150.346 E9.88889
G1 X175.239 Y150.531 E9.91955
G1 X174.928 Y150.616 E9.93563
G1 X174.411 Y150.739 E9.96214
G1 X173.805 Y150.861 E9.99298
G1 X172.646 Y151.005 E10.05125
G1 X172.031 Y151.035 E10.08197
G1 X171.293 Y151.036 E10.11879
G1 X170.814 Y151.014 E10.14271
G1 X170.182 Y150.959 E10.17436
G1 X169.924 Y150.926 E10.18734
G1 X169.337 Y150.832 E10.217
G1 X168.736 Y150.704 E10.24765
G1 X168.272 Y150.586 E10.27154
G1 X167.558 Y150.368 E10.30878
G1 X167.093 Y150.201 E10.33343
G1 X166.522 Y149.97 E10.36416
G1 X166.287 Y149.864 E10.37703
G1 X165.787 Y149.617 E10.40485
G1 X165.363 Y149.388 E10.42889
G1 X164.892 Y149.112 E10.45613
G1 X164.583 Y148.916 E10.47438
G1 X163.94 Y148.461 E10.51368
G1 X163.636 Y148.222 E10.53297
G1 X163.192 Y147.845 E10.56203
G1 X162.839 Y147.522 E10.5859
G1 X162.426 Y147.115 E10.61483
G1 X162.248 Y146.926 E10.62778
G1 X161.868 Y146.491 E10.6566
G1 X161.499 Y146.036 E10.68583
G1 X160.933 Y145.241 E10.73452
G1 X160.721 Y144.9 E10.75455
G1 X160.452 Y144.432 E10.78148
G1 X160.228 Y144.009 E10.80536
G1 X159.973 Y143.48 E10.83466
G1 X157.752 Y138.392 E11.11163
G1 X155.479 Y133.809 E11.36685
G1 X152.976 Y129.325 E11.62305
G1 X150.277 Y124.996 E11.87757
G1 X147.347 Y120.771 E12.13408
G1 X144.24 Y116.728 E12.38847
G1 X140.926 Y112.822 E12.64403
G1 X137.419 Y109.073 E12.90014
G1 X133.756 Y105.524 E13.1546
G1 X129.91 Y102.144 E13.41004
G1 X125.895 Y98.947 E13.6661
G1 X121.749 Y95.963 E13.92095
G1 X117.45 Y93.177 E14.17653
G1 X113.026 Y90.606 E14.4318
G1 X108.475 Y88.248 E14.68752
G1 X103.829 Y86.123 E14.94241
G1 X99.067 Y84.218 E15.19829
G1 X94.238 Y82.554 E15.45311
G1 X89.309 Y81.12 E15.70921
G1 X84.324 Y79.931 E15.96489
G1 X79.322 Y78.989 E16.21883
G1 X74.217 Y78.285 E16.47593
G1 X69.148 Y77.835 E16.72982
G1 X64.023 Y77.632 E16.98571
G1 X58.895 Y77.676 E17.24155
G1 X53.787 Y77.971 E17.49682
G1 X48.265 Y78.559 E17.77387
G1 X47.486 Y78.612 E17.81282
G1 X46.725 Y78.617 E17.85079
G1 X46.234 Y78.596 E17.87531
G1 X45.448 Y78.522 E17.9147
G1 X44.972 Y78.453 E17.93869
G1 X44.257 Y78.315 E17.97502
G1 X43.885 Y78.225 E17.99412
G1 X43.3 Y78.06 E18.02444
G1 X42.742 Y77.878 E18.05372
G1 X41.845 Y77.522 E18.10187
G1 X41.366 Y77.297 E18.12827
G1 X40.676 Y76.93 E18.16726
G1 X40.255 Y76.678 E18.19174
G1 X39.653 Y76.278 E18.2278
G1 X39.272 Y75.999 E18.25136
G1 X38.663 Y75.504 E18.29051
G1 X38.294 Y75.172 E18.31528
G1 X37.748 Y74.63 E18.35366
G1 X37.489 Y74.346 E18.37284
G1 X37.113 Y73.901 E18.4019
G1 X36.816 Y73.522 E18.42592
G1 X36.462 Y73.033 E18.45604
G1 X36.245 Y72.707 E18.47558
G1 X35.855 Y72.054 E18.51353
G1 X35.686 Y71.737 E18.53145
G1 X35.45 Y71.256 E18.55818
G1 X35.21 Y70.72 E18.58748
G1 X34.855 Y69.763 E18.6384
G1 X34.741 Y69.381 E18.65829
G1 X34.606 Y68.866 E18.68485
G1 X34.5 Y68.396 E18.70889
G1 X34.422 Y68.004 E18.72883
G1 X34.048 Y65.832 E18.83879
G1 X33.954 Y65.048 E18.87818
G1 X33.939 Y64.258 E18.9176
G1 X33.973 Y63.734 E18.9438
G1 X34.007 Y63.393 E18.9609
G1 X34.126 Y62.612 E19.00031
G1 X34.322 Y61.847 E19.03971
G1 X34.621 Y61.025 E19.08335
G1 X35.016 Y60.207 E19.12867
G1 X35.429 Y59.534 E19.16806
G1 X36.096 Y58.691 E19.22169
G1 X36.39 Y58.368 E19.24348
G1 X36.95 Y57.811 E19.28289
G1 X37.564 Y57.314 E19.3223
G0 F7500 X37.832 Y57.614
G1 F1500 X38.478 Y57.198 E19.36063
G1 X39.378 Y56.76 E19.41057
G1 X39.79 Y56.593 E19.43275
G1 X40.517 Y56.341 E19.47113
G1 X41.538 Y56.123 E19.52322
G1 X47.45 Y55.29 E19.82108
G1 X47.813 Y55.248 E19.83931
G1 X53.762 Y54.708 E20.13733
G1 X54.127 Y54.684 E20.15558
G1 X60.093 Y54.439 E20.45348
G1 X60.456 Y54.433 E20.47159
G1 X66.427 Y54.481 E20.76949
G1 X66.794 Y54.493 E20.78781
G1 X72.755 Y54.837 E21.0857
G1 X73.118 Y54.867 E21.10387
G1 X79.057 Y55.504 E21.40187
G1 X79.419 Y55.552 E21.42009
G1 X85.318 Y56.481 E21.71802
G1 X85.678 Y56.547 E21.73628
G1 X91.525 Y57.767 E22.03427
G1 X91.881 Y57.85 E22.05251
G1 X97.661 Y59.357 E22.35051
G1 X98.011 Y59.458 E22.36869
G1 X103.707 Y61.247 E22.66655
G1 X104.052 Y61.365 E22.68474
G1 X109.656 Y63.433 E22.98275
G1 X109.998 Y63.569 E23.00111
G1 X115.49 Y65.912 E23.299
G1 X115.821 Y66.062 E23.31713
G1 X121.191 Y68.672 E23.61501
G1 X121.515 Y68.84 E23.63322
G1 X126.752 Y71.713 E23.93123
G1 X127.069 Y71.897 E23.94952
G1 X132.157 Y75.025 E24.24749
G1 X132.461 Y75.223 E24.26559
G1 X137.388 Y78.596 E24.56348
G1 X137.686 Y78.811 E24.58182
G1 X142.442 Y82.426 E24.87986
G1 X142.727 Y82.654 E24.89807
G1 X147.296 Y86.497 E25.19593
G1 X147.568 Y86.737 E25.21402
G1 X151.944 Y90.8 E25.51194
G1 X152.208 Y91.058 E25.53035
G1 X156.377 Y95.335 E25.82833
G1 X156.624 Y95.601 E25.84644
G1 X160.577 Y100.076 E26.14433
G1 X160.812 Y100.355 E26.16253
G1 X164.541 Y105.021 E26.46053
G1 X164.762 Y105.313 E26.4788
G1 X168.254 Y110.156 E26.77667
G1 X168.461 Y110.457 E26.7949
G1 X171.711 Y115.468 E27.09288
G1 X171.902 Y115.78 E27.11113
G1 X174.9 Y120.944 E27.40903
G1 X175.075 Y121.263 E27.42718
G1 X177.816 Y126.57 E27.72518
G1 X177.976 Y126.9 E27.74348
G1 X180.45 Y132.334 E28.04135
G1 X180.593 Y132.669 E28.05953
G1 X182.799 Y138.225 E28.35777
G1 X183.045 Y138.954 E28.39615
G1 X183.23 Y139.799 E28.43931
G1 X183.29 Y140.178 E28.45845
G1 X183.371 Y140.943 E28.49683
G1 X183.371 Y141.712 E28.5352
G1 X183.252 Y142.711 E28.58539
G1 X183.196 Y143.007 E28.60042
G1 X183.014 Y143.754 E28.63878
G1 X182.755 Y144.478 E28.67714
G1 X182.389 Y145.234 E28.71904
G1 X182.224 Y145.53 E28.73595
G1 X181.815 Y146.181 E28.77431
G1 X181.34 Y146.787 E28.81272
G1 X180.806 Y147.34 E28.85107
G1 X180.42 Y147.675 E28.87657
G1 X180.082 Y147.949 E28.89828
G1 X179.46 Y148.402 E28.93667
G1 X178.795 Y148.788 E28.97503
G1 X177.928 Y149.164 E29.02218
G1 X175.689 Y149.97 E29.1409
G1 X175.134 Y150.145 E29.16993
G1 X174.823 Y150.23 E29.18602
G1 X174.332 Y150.346 E29.21119
G1 X173.726 Y150.468 E29.24203
G1 X172.627 Y150.605 E29.29728
G1 X172.012 Y150.635 E29.328
G1 X171.311 Y150.636 E29.36297
G1 X170.832 Y150.614 E29.3869
G1 X170.233 Y150.562 E29.41689
G1 X169.661 Y150.482 E29.44571
G1 X169.405 Y150.438 E29.45867
G1 X168.834 Y150.317 E29.48779
G1 X168.37 Y150.199 E29.51167
G1 X167.693 Y149.991 E29.54701
G1 X167.228 Y149.824 E29.57166
G1 X166.686 Y149.606 E29.6008
G1 X166.451 Y149.5 E29.61366
G1 X165.977 Y149.265 E29.64006
G1 X165.553 Y149.036 E29.6641
G1 X165.106 Y148.774 E29.68995
G1 X164.797 Y148.578 E29.7082
G1 X164.187 Y148.146 E29.7455
G1 X163.883 Y147.907 E29.76479
G1 X163.462 Y147.549 E29.79236
G1 X163.109 Y147.226 E29.81623
G1 X162.717 Y146.84 E29.84368
G1 X162.539 Y146.651 E29.85663
G1 X162.179 Y146.239 E29.88393
G1 X161.81 Y145.784 E29.91315
G1 X161.273 Y145.03 E29.95934
G1 X161.061 Y144.689 E29.97937
G1 X160.805 Y144.245 E30.00494
G1 X160.581 Y143.822 E30.02882
G1 X160.339 Y143.32 E30.05662
G1 X158.111 Y138.217 E30.33442
G1 X155.826 Y133.607 E30.59111
G1 X153.329 Y129.136 E30.8466
G1 X150.606 Y124.769 E31.10336
G1 X147.673 Y120.539 E31.36016
G1 X144.55 Y116.475 E31.61587
G1 X141.221 Y112.552 E31.87256
G1 X137.716 Y108.805 E32.12853
G1 X134.015 Y105.219 E32.38563
G1 X130.173 Y101.843 E32.6408
G1 X126.128 Y98.621 E32.8988
G1 X121.988 Y95.642 E33.15326
G1 X117.651 Y92.831 E33.41111
G1 X113.224 Y90.258 E33.66657
G1 X108.646 Y87.887 E33.92378
G1 X103.974 Y85.749 E34.18011
G1 X99.208 Y83.842 E34.43622
G1 X94.354 Y82.17 E34.69235
G1 X89.431 Y80.738 E34.94814
G1 X84.408 Y79.54 E35.20576
G1 X79.369 Y78.591 E35.46158
G1 X74.287 Y77.89 E35.71752
G1 X69.158 Y77.435 E35.97441
G1 X64.036 Y77.231 E36.23015
G1 X58.889 Y77.276 E36.48695
G1 X53.743 Y77.574 E36.74411
G1 X48.223 Y78.161 E37.02106
G1 X47.846 Y78.192 E37.03993
G1 X47.464 Y78.213 E37.05902
G1 X46.742 Y78.217 E37.09504
G1 X46.251 Y78.196 E37.11956
G1 X45.505 Y78.126 E37.15694
G1 X45.029 Y78.057 E37.18094
G1 X44.351 Y77.926 E37.21539
G1 X43.979 Y77.836 E37.23448
G1 X43.424 Y77.679 E37.26326
G1 X42.866 Y77.497 E37.29254
G1 X42.015 Y77.16 E37.3382
G1 X41.536 Y76.935 E37.36461
G1 X40.881 Y76.586 E37.40163
G1 X40.46 Y76.334 E37.42611
G1 X39.889 Y75.955 E37.4603
G1 X39.508 Y75.676 E37.48386
G1 X38.93 Y75.207 E37.521
G1 X38.561 Y74.875 E37.54576
G1 X38.043 Y74.36 E37.58221
G1 X37.784 Y74.076 E37.60138
G1 X37.427 Y73.654 E37.62896
G1 X37.13 Y73.275 E37.65298
G1 X36.795 Y72.811 E37.68153
G1 X36.578 Y72.485 E37.70107
G1 X36.208 Y71.866 E37.73705
G1 X36.039 Y71.549 E37.75497
G1 X35.815 Y71.092 E37.78036
G1 X35.575 Y70.556 E37.80966
G1 X35.238 Y69.648 E37.85798
G1 X35.124 Y69.266 E37.87787
G1 X34.996 Y68.778 E37.90304
G1 X34.89 Y68.308 E37.92708
G1 X34.816 Y67.936 E37.946
G1 X34.442 Y65.764 E38.05596
G1 X34.351 Y65 E38.09434
G1 X34.34 Y64.231 E38.13271
G1 X34.372 Y63.774 E38.15557
G1 X34.406 Y63.433 E38.17267
G1 X34.521 Y62.672 E38.21106
G1 X34.716 Y61.928 E38.24943
G1 X34.992 Y61.176 E38.2894
G1 X35.377 Y60.381 E38.33347
G1 X35.781 Y59.727 E38.37182
G1 X36.392 Y58.96 E38.42074
G1 X36.686 Y58.637 E38.44253
G1 X37.232 Y58.096 E38.48088
G1 X37.832 Y57.614 E38.51928
G0 F7500 X38.099 Y57.915
G1 F1500 X38.731 Y57.514 E38.55662
G1 X39.528 Y57.131 E38.60073
G1 X39.94 Y56.964 E38.62291
G1 X40.648 Y56.72 E38.66027
G1 X41.593 Y56.519 E38.70848
G1 X47.505 Y55.686 E39.00634
G1 X47.849 Y55.647 E39.02361
G1 X53.798 Y55.107 E39.32163
G1 X54.144 Y55.084 E39.33893
G1 X60.11 Y54.839 E39.63683
G1 X60.453 Y54.833 E39.65394
G1 X66.424 Y54.881 E39.95184
G1 X66.771 Y54.893 E39.96917
G1 X72.732 Y55.237 E40.26706
G1 X73.076 Y55.265 E40.28428
G1 X79.015 Y55.902 E40.58227
G1 X79.357 Y55.947 E40.59948
G1 X85.256 Y56.876 E40.89741
G1 X85.597 Y56.939 E40.91471
G1 X91.444 Y58.159 E41.2127
G1 X91.78 Y58.237 E41.22991
G1 X97.56 Y59.744 E41.52792
G1 X97.892 Y59.84 E41.54516
G1 X103.588 Y61.629 E41.84302
G1 X103.913 Y61.74 E41.86015
G1 X109.517 Y63.808 E42.15817
G1 X109.841 Y63.936 E42.17555
G1 X115.333 Y66.279 E42.47344
G1 X115.646 Y66.422 E42.49061
G1 X121.016 Y69.032 E42.78848
G1 X121.323 Y69.191 E42.80573
G1 X126.56 Y72.064 E43.10374
G1 X126.859 Y72.238 E43.121
G1 X131.947 Y75.366 E43.41898
G1 X132.235 Y75.553 E43.43611
G1 X137.162 Y78.926 E43.734
G1 X137.444 Y79.129 E43.75134
G1 X142.2 Y82.744 E44.04938
G1 X142.47 Y82.96 E44.06663
G1 X147.039 Y86.803 E44.36449
G1 X147.296 Y87.03 E44.38159
G1 X151.672 Y91.093 E44.67951
G1 X151.922 Y91.337 E44.69693
G1 X156.091 Y95.614 E44.99491
G1 X156.324 Y95.866 E45.01204
G1 X160.277 Y100.341 E45.30993
G1 X160.499 Y100.605 E45.32714
G1 X164.228 Y105.271 E45.62513
G1 X164.438 Y105.547 E45.64243
G1 X167.93 Y110.39 E45.94031
G1 X168.125 Y110.675 E45.95754
G1 X171.375 Y115.686 E46.25552
G1 X171.556 Y115.98 E46.27274
G1 X174.554 Y121.144 E46.57064
G1 X174.719 Y121.447 E46.58786
G1 X177.46 Y126.754 E46.88585
G1 X177.612 Y127.065 E46.90312
G1 X180.086 Y132.499 E47.201
G1 X180.221 Y132.817 E47.21824
G1 X182.427 Y138.373 E47.51648
G1 X182.665 Y139.082 E47.55379
G1 X182.835 Y139.861 E47.59357
G1 X182.895 Y140.24 E47.61271
G1 X182.972 Y140.985 E47.65008
G1 X182.97 Y141.733 E47.6874
G1 X182.859 Y142.636 E47.73279
G1 X182.803 Y142.932 E47.74782
G1 X182.625 Y143.659 E47.78516
G1 X182.37 Y144.362 E47.82247
G1 X182.039 Y145.039 E47.86006
G1 X181.874 Y145.335 E47.87697
G1 X181.476 Y145.968 E47.91427
G1 X181.012 Y146.555 E47.9516
G1 X180.488 Y147.089 E47.98893
G1 X180.168 Y147.365 E48.01001
G1 X179.83 Y147.639 E48.03172
G1 X179.225 Y148.078 E48.06901
G1 X178.576 Y148.45 E48.10633
G1 X177.793 Y148.787 E48.14886
G1 X175.554 Y149.593 E48.26758
G1 X175.028 Y149.759 E48.2951
G1 X174.717 Y149.844 E48.31119
G1 X174.254 Y149.954 E48.33493
G1 X173.648 Y150.076 E48.36577
G1 X172.607 Y150.206 E48.41811
G1 X171.992 Y150.236 E48.44883
G1 X171.33 Y150.237 E48.48185
G1 X170.851 Y150.215 E48.50578
G1 X170.284 Y150.165 E48.53417
G1 X169.728 Y150.088 E48.56218
G1 X169.472 Y150.044 E48.57514
G1 X168.933 Y149.929 E48.60263
G1 X168.469 Y149.811 E48.62652
G1 X167.828 Y149.615 E48.65996
G1 X167.363 Y149.448 E48.68461
G1 X166.851 Y149.241 E48.71216
G1 X166.616 Y149.135 E48.72502
G1 X166.168 Y148.913 E48.74997
G1 X165.744 Y148.684 E48.77401
G1 X165.321 Y148.436 E48.79847
G1 X165.012 Y148.24 E48.81673
G1 X164.435 Y147.832 E48.85198
G1 X164.131 Y147.593 E48.87128
G1 X163.732 Y147.254 E48.8974
G1 X163.379 Y146.931 E48.92127
G1 X163.008 Y146.566 E48.94723
G1 X162.83 Y146.377 E48.96019
G1 X162.489 Y145.987 E48.98603
G1 X162.12 Y145.532 E49.01526
G1 X161.612 Y144.819 E49.05894
G1 X161.4 Y144.478 E49.07897
G1 X161.159 Y144.058 E49.10313
G1 X160.935 Y143.635 E49.12701
G1 X160.706 Y143.16 E49.15332
G1 X158.475 Y138.049 E49.43154
G1 X156.184 Y133.43 E49.68877
G1 X153.673 Y128.931 E49.94582
G1 X150.935 Y124.541 E50.20394
G1 X148.006 Y120.318 E50.46035
G1 X144.852 Y116.212 E50.71865
G1 X141.525 Y112.291 E50.9752
G1 X137.994 Y108.517 E51.23305
G1 X134.296 Y104.934 E51.48994
G1 X130.425 Y101.532 E51.74705
G1 X126.384 Y98.313 E52.0048
G1 X122.189 Y95.295 E52.26262
G1 X117.867 Y92.494 E52.51957
G1 X113.422 Y89.911 E52.77606
G1 X108.81 Y87.521 E53.03521
G1 X104.145 Y85.387 E53.29114
G1 X99.349 Y83.468 E53.54886
G1 X94.47 Y81.787 E53.80632
G1 X89.534 Y80.351 E54.06279
G1 X84.493 Y79.148 E54.32134
G1 X79.435 Y78.197 E54.57811
G1 X74.338 Y77.493 E54.83481
G1 X69.167 Y77.034 E55.09381
G1 X64.048 Y76.831 E55.3494
G1 X58.862 Y76.877 E55.60814
G1 X53.74 Y77.172 E55.8641
G1 X48.181 Y77.764 E56.14301
G1 X47.442 Y77.813 E56.17996
G1 X46.759 Y77.818 E56.21404
G1 X46.268 Y77.797 E56.23855
G1 X45.563 Y77.731 E56.27388
G1 X45.087 Y77.662 E56.29788
G1 X44.445 Y77.538 E56.3305
G1 X44.073 Y77.448 E56.34959
G1 X43.548 Y77.299 E56.37682
